X: 30321
T: Old Man's Delight
R: jig
M: 6/8
K: Gmajor
|:e|"G"dBG G2B|"D"AFD D2 e|"G"dBG GBd|"Em"eag fef|
"G"gdB GAB|"D"AFD D(3DDD|"C"EFG "D"AFD|"G"GAF G2:|
|:d|"G"BGB dBd|"C"ece "D"d2 e|"G"dBG GAB|"D"AFD D2 A|
"G"BGB dBd|"C"e>z e "D"d2 e|"G"dBG "D"DEF|"G"AGF G2:|

